resources/dark/global.svg

<svg fill="none" height="16" viewBox="0 0 16 16" width="16" xmlns="http://www.w3.org/2000/svg"><path d="m10.6181 6.45162h3.1798c.1316.49401.2021 1.01294.2021 1.54839 0 .53546-.0705 1.05438-.2021 1.54839h-3.1798c.1247-1.04151.1195-2.0987 0-3.09678zm-4.33066 3.87098c.25834 1.2987.80258 2.7221 1.69658 3.6772.00535.0001.01065.0002.01599.0002.00535 0 .01065-.0002.01599-.0002.89546-.9567 1.43873-2.381 1.69658-3.6772zm4.21286-4.64517h3.0335c-.7724-1.83814-2.4339-3.21037-4.44629-3.57884.73157 1.04323 1.18119 2.33062 1.41279 3.57884zm-.66172.77419h-3.67714c-.12917 1.01405-.12931 2.08155 0 3.09678h3.67716c.12917-1.01407.12932-2.08154-.00002-3.09678zm-4.33883 3.87098h-3.03352c.77241 1.8381 2.43388 3.2104 4.44626 3.5788-.73176-1.0436-1.18121-2.331-1.41274-3.5788zm5.00055 0c-.2317 1.2485-.68139 2.5358-1.41279 3.5788 2.01239-.3684 3.67389-1.7407 4.44629-3.5788zm-.78772-4.64517c-.25834-1.29872-.8026-2.72212-1.69658-3.67724-.00534 0-.01064-.00019-.01599-.00019-.00534 0-.01064.00019-.01599.00019-.89545.95669-1.43872 2.38099-1.69658 3.67724zm-7.51044.77419c-.13162.49401-.20214 1.01294-.20214 1.54839 0 .53546.07052 1.05438.20214 1.54839h3.17976c-.11949-.99808-.12469-2.05527 0-3.09678zm3.29761-.77419c.23165-1.24844.68132-2.53573 1.41276-3.57884-2.01237.36847-3.67385 1.7407-4.44628 3.57884z" fill="#a641f4"/></svg>

<svg width="16" height="16" viewBox="0 0 16 16" fill="none" xmlns="http://www.w3.org/2000/svg">
<path d="M10.6181 6.45162H13.7979C13.9295 6.94563 14 7.46456 14 8.00001C14 8.53547 13.9295 9.05439 13.7979 9.5484H10.6181C10.7428 8.50689 10.7376 7.4497 10.6181 6.45162ZM6.28744 10.3226C6.54578 11.6213 7.09002 13.0447 7.98402 13.9998C7.98937 13.9999 7.99467 14 8.00001 14C8.00536 14 8.01066 13.9998 8.016 13.9998C8.91146 13.0431 9.45473 11.6188 9.71258 10.3226H6.28744ZM10.5003 5.67743H13.5338C12.7614 3.83929 11.0999 2.46706 9.08751 2.09859C9.81908 3.14182 10.2687 4.42921 10.5003 5.67743ZM9.83858 6.45162H6.16144C6.03227 7.46567 6.03213 8.53317 6.16144 9.5484H9.8386C9.96777 8.53433 9.96792 7.46686 9.83858 6.45162ZM5.49975 10.3226H2.46623C3.23864 12.1607 4.90011 13.533 6.91249 13.9014C6.18073 12.8578 5.73128 11.5704 5.49975 10.3226ZM10.5003 10.3226C10.2686 11.5711 9.81891 12.8584 9.08751 13.9014C11.0999 13.533 12.7614 12.1607 13.5338 10.3226H10.5003ZM9.71258 5.67743C9.45424 4.37871 8.90998 2.95531 8.016 2.00019C8.01066 2.00019 8.00536 2 8.00001 2C7.99467 2 7.98937 2.00019 7.98402 2.00019C7.08857 2.95688 6.5453 4.38118 6.28744 5.67743H9.71258ZM2.20214 6.45162C2.07052 6.94563 2 7.46456 2 8.00001C2 8.53547 2.07052 9.05439 2.20214 9.5484H5.3819C5.26241 8.55032 5.25721 7.49313 5.3819 6.45162H2.20214ZM5.49975 5.67743C5.7314 4.42899 6.18107 3.1417 6.91251 2.09859C4.90014 2.46706 3.23866 3.83929 2.46623 5.67743H5.49975Z" fill="#A641F4"/>
</svg>
